images/indikatorenset/4146.svg

<?xml version="1.0" standalone="no"?>
<!DOCTYPE svg PUBLIC "-//W3C//DTD SVG 1.1//EN" "http://www.w3.org/Graphics/SVG/1.1/DTD/svg11.dtd">
<svg xmlns:xlink="http://www.w3.org/1999/xlink" version="1.1" class="highcharts-root" style="font-family:arial;font-size:12px;" xmlns="http://www.w3.org/2000/svg" viewBox="0 0 485 415">
  <desc>
    Created with Highstock 5.0.14
  </desc>
  <defs>
    <clipPath id="highcharts-0uo2bjo-8">
      <rect x="0" y="0" width="379" height="275" fill="none"/>
    </clipPath>
    <clipPath id="highcharts-0uo2bjo-9">
      <rect x="0" y="0" width="379" height="275" fill="none"/>
    </clipPath>
    <clipPath id="highcharts-0uo2bjo-10">
      <rect x="0" y="0" width="379" height="275" fill="none"/>
    </clipPath>
  </defs>
  <rect fill="#fbfbfb" class="highcharts-background" x="0" y="0" width="485" height="415" rx="0" ry="0"/>
  <rect fill="none" class="highcharts-plot-background" x="59" y="75" width="379" height="275"/>
  <g class="highcharts-pane-group"/>
  <g class="highcharts-grid highcharts-xaxis-grid ">
    <path fill="none" class="highcharts-grid-line" d="M 66.5 75 L 66.5 350" opacity="1"/>
    <path fill="none" class="highcharts-grid-line" d="M 105.5 75 L 105.5 350" opacity="1"/>
    <path fill="none" class="highcharts-grid-line" d="M 145.5 75 L 145.5 350" opacity="1"/>
    <path fill="none" class="highcharts-grid-line" d="M 184.5 75 L 184.5 350" opacity="1"/>
    <path fill="none" class="highcharts-grid-line" d="M 224.5 75 L 224.5 350" opacity="1"/>
    <path fill="none" class="highcharts-grid-line" d="M 263.5 75 L 263.5 350" opacity="1"/>
    <path fill="none" class="highcharts-grid-line" d="M 303.5 75 L 303.5 350" opacity="1"/>
    <path fill="none" class="highcharts-grid-line" d="M 342.5 75 L 342.5 350" opacity="1"/>
    <path fill="none" class="highcharts-grid-line" d="M 382.5 75 L 382.5 350" opacity="1"/>
    <path fill="none" class="highcharts-grid-line" d="M 421.5 75 L 421.5 350" opacity="1"/>
  </g>
  <g class="highcharts-grid highcharts-yaxis-grid ">
    <path fill="none" stroke="#e6e6e6" stroke-width="1" class="highcharts-grid-line" d="M 59 350.5 L 438 350.5" opacity="1"/>
    <path fill="none" stroke="#e6e6e6" stroke-width="1" class="highcharts-grid-line" d="M 59 281.5 L 438 281.5" opacity="1"/>
    <path fill="none" stroke="#e6e6e6" stroke-width="1" class="highcharts-grid-line" d="M 59 213.5 L 438 213.5" opacity="1"/>
    <path fill="none" stroke="#e6e6e6" stroke-width="1" class="highcharts-grid-line" d="M 59 144.5 L 438 144.5" opacity="1"/>
    <path fill="none" stroke="#e6e6e6" stroke-width="1" class="highcharts-grid-line" d="M 59 74.5 L 438 74.5" opacity="1"/>
  </g>
  <g class="highcharts-grid highcharts-yaxis-grid ">
    <path fill="none" stroke="#e6e6e6" stroke-width="1" class="highcharts-grid-line" d="M 59 350.5 L 438 350.5" opacity="1"/>
    <path fill="none" stroke="#e6e6e6" stroke-width="1" class="highcharts-grid-line" d="M 59 281.5 L 438 281.5" opacity="1"/>
    <path fill="none" stroke="#e6e6e6" stroke-width="1" class="highcharts-grid-line" d="M 59 213.5 L 438 213.5" opacity="1"/>
    <path fill="none" stroke="#e6e6e6" stroke-width="1" class="highcharts-grid-line" d="M 59 144.5 L 438 144.5" opacity="1"/>
    <path fill="none" stroke="#e6e6e6" stroke-width="1" class="highcharts-grid-line" d="M 59 74.5 L 438 74.5" opacity="1"/>
  </g>
  <rect fill="none" class="highcharts-plot-border" x="59" y="75" width="379" height="275"/>
  <g class="highcharts-axis highcharts-xaxis ">
    <path fill="none" class="highcharts-tick" stroke="#FFFFFF" stroke-width="1" d="M 66.5 350 L 66.5 360" opacity="1"/>
    <path fill="none" class="highcharts-tick" stroke="#FFFFFF" stroke-width="1" d="M 105.5 350 L 105.5 360" opacity="1"/>
    <path fill="none" class="highcharts-tick" stroke="#FFFFFF" stroke-width="1" d="M 145.5 350 L 145.5 360" opacity="1"/>
    <path fill="none" class="highcharts-tick" stroke="#FFFFFF" stroke-width="1" d="M 184.5 350 L 184.5 360" opacity="1"/>
    <path fill="none" class="highcharts-tick" stroke="#FFFFFF" stroke-width="1" d="M 224.5 350 L 224.5 360" opacity="1"/>
    <path fill="none" class="highcharts-tick" stroke="#FFFFFF" stroke-width="1" d="M 263.5 350 L 263.5 360" opacity="1"/>
    <path fill="none" class="highcharts-tick" stroke="#FFFFFF" stroke-width="1" d="M 303.5 350 L 303.5 360" opacity="1"/>
    <path fill="none" class="highcharts-tick" stroke="#FFFFFF" stroke-width="1" d="M 342.5 350 L 342.5 360" opacity="1"/>
    <path fill="none" class="highcharts-tick" stroke="#FFFFFF" stroke-width="1" d="M 382.5 350 L 382.5 360" opacity="1"/>
    <path fill="none" class="highcharts-tick" stroke="#FFFFFF" stroke-width="1" d="M 421.5 350 L 421.5 360" opacity="1"/>
    <path fill="none" class="highcharts-axis-line" stroke="#ccd6eb" stroke-width="1" d="M 59 350.5 L 438 350.5"/>
  </g>
  <g class="highcharts-axis highcharts-yaxis ">
    <path fill="none" class="highcharts-axis-line" d="M 59 75 L 59 350"/>
  </g>
  <g class="highcharts-axis highcharts-yaxis ">
    <path fill="none" class="highcharts-axis-line" d="M 438 75 L 438 350"/>
  </g>
  <g class="highcharts-series-group">
    <g class="highcharts-series highcharts-series-0 highcharts-column-series highcharts-color-undefined " transform="translate(59,75) scale(1 1)" clip-path="url(#highcharts-0uo2bjo-9)">
      <rect x="2.5" y="124.5" width="10" height="151" fill="#73b97c" stroke="#ffffff" stroke-width="1" class="highcharts-point"/>
      <rect x="81.5" y="95.5" width="10" height="180" fill="#73b97c" stroke="#ffffff" stroke-width="1" class="highcharts-point"/>
      <rect x="160.5" y="90.5" width="10" height="185" fill="#73b97c" stroke="#ffffff" stroke-width="1" class="highcharts-point"/>
      <rect x="239.5" y="82.5" width="10" height="193" fill="#73b97c" stroke="#ffffff" stroke-width="1" class="highcharts-point"/>
      <rect x="318.5" y="70.5" width="10" height="205" fill="#73b97c" stroke="#ffffff" stroke-width="1" class="highcharts-point"/>
      <rect x="326.5" y="67.5" width="10" height="208" fill="#73b97c" stroke="#ffffff" stroke-width="1" class="highcharts-point"/>
      <rect x="334.5" y="67.5" width="10" height="208" fill="#73b97c" stroke="#ffffff" stroke-width="1" class="highcharts-point"/>
      <rect x="342.5" y="60.5" width="10" height="215" fill="#73b97c" stroke="#ffffff" stroke-width="1" class="highcharts-point"/>
      <rect x="350.5" y="58.5" width="10" height="217" fill="#73b97c" stroke="#ffffff" stroke-width="1" class="highcharts-point"/>
      <rect x="357.5" y="57.5" width="10" height="218" fill="#73b97c" stroke="#ffffff" stroke-width="1" class="highcharts-point"/>
      <rect x="365.5" y="56.5" width="10" height="219" fill="#73b97c" stroke="#ffffff" stroke-width="1" class="highcharts-point"/>
    </g>
    <g class="highcharts-markers highcharts-series-0 highcharts-column-series highcharts-color-undefined " transform="translate(59,75) scale(1 1)" clip-path="none"/>
    <g class="highcharts-series highcharts-series-1 highcharts-line-series highcharts-color-undefined " transform="translate(59,75) scale(1 1)" clip-path="url(#highcharts-0uo2bjo-10)">
      <path fill="none" d="M 7.5926544240403 110.39779741940123 L 86.682804674458 93.10787887995 L 165.77295492487 93.31234176594685 L 244.86310517529 89.16259174576874 L 323.95325542571 80.50265027738314 L 331.86227045075 78.37980546110688 L 339.77128547579 78.37472721604624 L 347.68030050083 72.11671547073811 L 355.58931552588 71.81291197232625 L 363.49833055092 72.67014882523688 L 371.40734557596 73.31900910010188" class="highcharts-graph" stroke="#000000" stroke-width="5" stroke-linejoin="round" stroke-linecap="round" stroke-opacity="0.049999999999999996" transform="translate(1, 1)"/>
      <path fill="none" d="M 7.5926544240403 110.39779741940123 L 86.682804674458 93.10787887995 L 165.77295492487 93.31234176594685 L 244.86310517529 89.16259174576874 L 323.95325542571 80.50265027738314 L 331.86227045075 78.37980546110688 L 339.77128547579 78.37472721604624 L 347.68030050083 72.11671547073811 L 355.58931552588 71.81291197232625 L 363.49833055092 72.67014882523688 L 371.40734557596 73.31900910010188" class="highcharts-graph" stroke="#000000" stroke-width="3" stroke-linejoin="round" stroke-linecap="round" stroke-opacity="0.09999999999999999" transform="translate(1, 1)"/>
      <path fill="none" d="M 7.5926544240403 110.39779741940123 L 86.682804674458 93.10787887995 L 165.77295492487 93.31234176594685 L 244.86310517529 89.16259174576874 L 323.95325542571 80.50265027738314 L 331.86227045075 78.37980546110688 L 339.77128547579 78.37472721604624 L 347.68030050083 72.11671547073811 L 355.58931552588 71.81291197232625 L 363.49833055092 72.67014882523688 L 371.40734557596 73.31900910010188" class="highcharts-graph" stroke="#000000" stroke-width="1" stroke-linejoin="round" stroke-linecap="round" stroke-opacity="0.15" transform="translate(1, 1)"/>
      <path fill="none" d="M 7.5926544240403 110.39779741940123 L 86.682804674458 93.10787887995 L 165.77295492487 93.31234176594685 L 244.86310517529 89.16259174576874 L 323.95325542571 80.50265027738314 L 331.86227045075 78.37980546110688 L 339.77128547579 78.37472721604624 L 347.68030050083 72.11671547073811 L 355.58931552588 71.81291197232625 L 363.49833055092 72.67014882523688 L 371.40734557596 73.31900910010188" class="highcharts-graph" stroke="#cd9c00" stroke-width="2" stroke-linejoin="round" stroke-linecap="round"/>
    </g>
    <g class="highcharts-markers highcharts-series-1 highcharts-line-series highcharts-color-undefined " transform="translate(59,75) scale(1 1)" clip-path="none"/>
  </g>
  <text x="10" text-anchor="start" class="highcharts-title" style="color:#000000;font-size:14px;font-weight:bold;fill:#000000;" y="21">
    <tspan>Anzahl und Anteil Wohnungen mit 4 oder mehr Zimmern</tspan>
  </text>
  <g class="highcharts-legend" transform="translate(10,35)">
    <rect fill="none" class="highcharts-legend-box" rx="0" ry="0" x="0" y="0" width="245" height="25" visibility="visible"/>
    <g>
      <g>
        <g class="highcharts-legend-item highcharts-column-series highcharts-color-undefined highcharts-series-0" transform="translate(8,3)">
          <text x="21" style="color:#333333;font-size:12px;font-weight:normal;cursor:pointer;fill:#333333;" text-anchor="start" y="15">
            <tspan>4 Zimmer u. m.</tspan>
          </text>
          <rect x="2" y="4" width="12" height="12" fill="#73b97c" class="highcharts-point"/>
        </g>
        <g class="highcharts-legend-item highcharts-line-series highcharts-color-undefined highcharts-series-1" transform="translate(129.578125,3)">
          <path fill="none" d="M 0 11 L 16 11" class="highcharts-graph" stroke="#cd9c00" stroke-width="2"/>
          <path fill="#cd9c00" d="M 12 11 A 4 4 0 1 1 11.999998000000167 10.996000000666664 Z" class="highcharts-point"/>
          <text x="21" y="15" style="color:#333333;font-size:12px;font-weight:normal;cursor:pointer;fill:#333333;" text-anchor="start">
            <tspan>Anteil in Prozent</tspan>
          </text>
        </g>
      </g>
    </g>
  </g>
  <g class="highcharts-axis-labels highcharts-xaxis-labels ">
    <text x="66.59265442404035" style="color:#000000;cursor:default;font-size:11px;fill:#000000;" text-anchor="middle" transform="translate(0,0)" y="369" opacity="1">
      1970
    </text>
    <text x="106.13772954924897" style="color:#000000;cursor:default;font-size:11px;fill:#000000;" text-anchor="middle" transform="translate(0,0)" y="369" opacity="1">
      1975
    </text>
    <text x="145.6828046744576" style="color:#000000;cursor:default;font-size:11px;fill:#000000;" text-anchor="middle" transform="translate(0,0)" y="369" opacity="1">
      1980
    </text>
    <text x="185.2278797996662" style="color:#000000;cursor:default;font-size:11px;fill:#000000;" text-anchor="middle" transform="translate(0,0)" y="369" opacity="1">
      1985
    </text>
    <text x="224.77295492487482" style="color:#000000;cursor:default;font-size:11px;fill:#000000;" text-anchor="middle" transform="translate(0,0)" y="369" opacity="1">
      1990
    </text>
    <text x="264.31803005008345" style="color:#000000;cursor:default;font-size:11px;fill:#000000;" text-anchor="middle" transform="translate(0,0)" y="369" opacity="1">
      1995
    </text>
    <text x="303.86310517529205" style="color:#000000;cursor:default;font-size:11px;fill:#000000;" text-anchor="middle" transform="translate(0,0)" y="369" opacity="1">
      2000
    </text>
    <text x="343.4081803005007" style="color:#000000;cursor:default;font-size:11px;fill:#000000;" text-anchor="middle" transform="translate(0,0)" y="369" opacity="1">
      2005
    </text>
    <text x="382.95325542570936" style="color:#000000;cursor:default;font-size:11px;fill:#000000;" text-anchor="middle" transform="translate(0,0)" y="369" opacity="1">
      2010
    </text>
    <text x="422.49833055091796" style="color:#000000;cursor:default;font-size:11px;fill:#000000;" text-anchor="middle" transform="translate(0,0)" y="369" opacity="1">
      2015
    </text>
  </g>
  <g class="highcharts-axis-labels highcharts-yaxis-labels ">
    <text x="44" style="color:#000000;cursor:default;font-size:11px;fill:#000000;" text-anchor="end" transform="translate(0,0)" y="355" opacity="1">
      <tspan>0</tspan>
    </text>
    <text x="44" style="color:#000000;cursor:default;font-size:11px;fill:#000000;" text-anchor="end" transform="translate(0,0)" y="286" opacity="1">
      <tspan>10 000</tspan>
    </text>
    <text x="44" style="color:#000000;cursor:default;font-size:11px;fill:#000000;" text-anchor="end" transform="translate(0,0)" y="217" opacity="1">
      <tspan>20 000</tspan>
    </text>
    <text x="44" style="color:#000000;cursor:default;font-size:11px;fill:#000000;" text-anchor="end" transform="translate(0,0)" y="148" opacity="1">
      <tspan>30 000</tspan>
    </text>
    <text x="44" style="color:#000000;cursor:default;font-size:11px;fill:#000000;" text-anchor="end" transform="translate(0,0)" y="80" opacity="1">
      <tspan>40 000</tspan>
    </text>
  </g>
  <g class="highcharts-axis-labels highcharts-yaxis-labels ">
    <text x="453" style="color:#000000;cursor:default;font-size:11px;fill:#000000;" text-anchor="start" transform="translate(0,0)" y="355" opacity="1">
      <tspan>0%</tspan>
    </text>
    <text x="453" style="color:#000000;cursor:default;font-size:11px;fill:#000000;" text-anchor="start" transform="translate(0,0)" y="286" opacity="1">
      <tspan>10%</tspan>
    </text>
    <text x="453" style="color:#000000;cursor:default;font-size:11px;fill:#000000;" text-anchor="start" transform="translate(0,0)" y="217" opacity="1">
      <tspan>20%</tspan>
    </text>
    <text x="453" style="color:#000000;cursor:default;font-size:11px;fill:#000000;" text-anchor="start" transform="translate(0,0)" y="148" opacity="1">
      <tspan>30%</tspan>
    </text>
    <text x="453" style="color:#000000;cursor:default;font-size:11px;fill:#000000;" text-anchor="start" transform="translate(0,0)" y="80" opacity="1">
      <tspan>40%</tspan>
    </text>
  </g>
  <text x="10" class="highcharts-credits" text-anchor="start" style="cursor:default;color:#000000;font-size:10px;fill:#000000;" y="400">
    <tspan>Quelle: Statistisches Amt Basel-Stadt, kantonale Gebäude- und Wohnungsstatistik</tspan>
  </text>
</svg>

<svg class="highcharts-root" xmlns="http://www.w3.org/2000/svg" viewBox="0 0 485 415" font-family="arial" font-size="12">
    <defs>
        <clipPath id="a">
            <path fill="none" d="M0 0h379v275H0z"/>
        </clipPath>
        <clipPath id="b">
            <path fill="none" d="M0 0h379v275H0z"/>
        </clipPath>
    </defs>
    <rect fill="#fbfbfb" class="highcharts-background" width="485" height="415" rx="0" ry="0"/>
    <path fill="none" class="highcharts-plot-background" d="M59 75h379v275H59z"/>
    <g class="highcharts-grid highcharts-xaxis-grid">
        <path fill="none" class="highcharts-grid-line" d="M66.5 75v275m39-275v275m40-275v275m39-275v275m40-275v275m39-275v275m40-275v275m39-275v275m40-275v275m39-275v275"/>
    </g>
    <g class="highcharts-grid highcharts-yaxis-grid">
        <path fill="none" stroke="#e6e6e6" class="highcharts-grid-line" d="M59 350.5h379m-379-69h379m-379-68h379m-379-69h379m-379-70h379"/>
    </g>
    <g class="highcharts-grid highcharts-yaxis-grid">
        <path fill="none" stroke="#e6e6e6" class="highcharts-grid-line" d="M59 350.5h379m-379-69h379m-379-68h379m-379-69h379m-379-70h379"/>
    </g>
    <path fill="none" class="highcharts-plot-border" d="M59 75h379v275H59z"/>
    <g class="highcharts-axis highcharts-xaxis">
        <path fill="none" class="highcharts-tick" stroke="#FFF" d="M66.5 350v10m39-10v10m40-10v10m39-10v10m40-10v10m39-10v10m40-10v10m39-10v10m40-10v10m39-10v10"/>
        <path fill="none" class="highcharts-axis-line" stroke="#ccd6eb" d="M59 350.5h379"/>
    </g>
    <g class="highcharts-axis highcharts-yaxis">
        <path fill="none" class="highcharts-axis-line" d="M59 75v275"/>
    </g>
    <g class="highcharts-axis highcharts-yaxis">
        <path fill="none" class="highcharts-axis-line" d="M438 75v275"/>
    </g>
    <g class="highcharts-series-group">
        <g class="highcharts-series highcharts-series-0 highcharts-column-series highcharts-color-undefined" transform="translate(59 75)" clip-path="url(#a)">
            <path fill="#73b97c" stroke="#fff" class="highcharts-point" d="M2.5 124.5h10v151h-10zm79-29h10v180h-10zm79-5h10v185h-10zm79-8h10v193h-10zm79-12h10v205h-10z"/>
            <path fill="#73b97c" stroke="#fff" class="highcharts-point" d="M326.5 67.5h10v208h-10z"/>
            <path fill="#73b97c" stroke="#fff" class="highcharts-point" d="M334.5 67.5h10v208h-10z"/>
            <path fill="#73b97c" stroke="#fff" class="highcharts-point" d="M342.5 60.5h10v215h-10z"/>
            <path fill="#73b97c" stroke="#fff" class="highcharts-point" d="M350.5 58.5h10v217h-10z"/>
            <path fill="#73b97c" stroke="#fff" class="highcharts-point" d="M357.5 57.5h10v218h-10z"/>
            <path fill="#73b97c" stroke="#fff" class="highcharts-point" d="M365.5 56.5h10v219h-10z"/>
        </g>
        <g class="highcharts-series highcharts-series-1 highcharts-line-series highcharts-color-undefined" transform="translate(59 75)" clip-path="url(#b)">
            <path fill="none" d="M8.593 111.398l79.09-17.29 79.09.204 79.09-4.15 79.09-8.66 7.91-2.122 7.908-.005 7.91-6.258 7.908-.304 7.91.857 7.908.649" class="highcharts-graph" stroke="#000" stroke-width="5" stroke-linejoin="round" stroke-linecap="round" stroke-opacity=".05"/>
            <path fill="none" d="M8.593 111.398l79.09-17.29 79.09.204 79.09-4.15 79.09-8.66 7.91-2.122 7.908-.005 7.91-6.258 7.908-.304 7.91.857 7.908.649" class="highcharts-graph" stroke="#000" stroke-width="3" stroke-linejoin="round" stroke-linecap="round" stroke-opacity=".1"/>
            <path fill="none" d="M8.593 111.398l79.09-17.29 79.09.204 79.09-4.15 79.09-8.66 7.91-2.122 7.908-.005 7.91-6.258 7.908-.304 7.91.857 7.908.649" class="highcharts-graph" stroke="#000" stroke-linejoin="round" stroke-linecap="round" stroke-opacity=".15"/>
            <path fill="none" d="M7.593 110.398l79.09-17.29 79.09.204 79.09-4.15 79.09-8.66 7.91-2.122 7.908-.005 7.91-6.258 7.908-.304 7.91.857 7.908.649" class="highcharts-graph" stroke="#cd9c00" stroke-width="2" stroke-linejoin="round" stroke-linecap="round"/>
        </g>
    </g>
    <text x="10" class="highcharts-title" y="21" color="#000" font-size="14" font-weight="700">
        <tspan>Anzahl und Anteil Wohnungen mit 4 oder mehr Zimmern</tspan>
    </text>
    <g class="highcharts-legend" transform="translate(10 35)">
        <rect fill="none" class="highcharts-legend-box" rx="0" ry="0" width="245" height="25"/>
        <g class="highcharts-legend-item highcharts-column-series highcharts-color-undefined highcharts-series-0">
            <text x="21" y="15" color="#333" font-weight="400" cursor="pointer" fill="#333" transform="translate(8 3)">
                <tspan>4 Zimmer u. m.</tspan>
            </text>
            <path fill="#73b97c" class="highcharts-point" d="M10 7h12v12H10z"/>
        </g>
        <g class="highcharts-legend-item highcharts-line-series highcharts-color-undefined highcharts-series-1">
            <path fill="none" d="M129.578 14h16" class="highcharts-graph" stroke="#cd9c00" stroke-width="2"/>
            <path fill="#cd9c00" d="M141.578 14a4 4 0 1 1 0-.004z" class="highcharts-point"/>
            <text x="21" y="15" color="#333" font-weight="400" cursor="pointer" fill="#333" transform="translate(129.578 3)">
                <tspan>Anteil in Prozent</tspan>
            </text>
        </g>
    </g>
    <g class="highcharts-axis-labels highcharts-xaxis-labels" text-anchor="middle" color="#000" cursor="default" font-size="11">
        <text x="66.593" y="369">
            1970
        </text>
        <text x="106.138" y="369">
            1975
        </text>
        <text x="145.683" y="369">
            1980
        </text>
        <text x="185.228" y="369">
            1985
        </text>
        <text x="224.773" y="369">
            1990
        </text>
        <text x="264.318" y="369">
            1995
        </text>
        <text x="303.863" y="369">
            2000
        </text>
        <text x="343.408" y="369">
            2005
        </text>
        <text x="382.953" y="369">
            2010
        </text>
        <text x="422.498" y="369">
            2015
        </text>
    </g>
    <g class="highcharts-axis-labels highcharts-yaxis-labels" text-anchor="end" color="#000" cursor="default" font-size="11">
        <text x="44" y="355">
            <tspan>0</tspan>
        </text>
        <text x="44" y="286">
            <tspan>10 000</tspan>
        </text>
        <text x="44" y="217">
            <tspan>20 000</tspan>
        </text>
        <text x="44" y="148">
            <tspan>30 000</tspan>
        </text>
        <text x="44" y="80">
            <tspan>40 000</tspan>
        </text>
    </g>
    <g class="highcharts-axis-labels highcharts-yaxis-labels" color="#000" cursor="default" font-size="11">
        <text x="453" y="355">
            <tspan>0%</tspan>
        </text>
        <text x="453" y="286">
            <tspan>10%</tspan>
        </text>
        <text x="453" y="217">
            <tspan>20%</tspan>
        </text>
        <text x="453" y="148">
            <tspan>30%</tspan>
        </text>
        <text x="453" y="80">
            <tspan>40%</tspan>
        </text>
    </g>
    <text x="10" class="highcharts-credits" y="400" cursor="default" color="#000" font-size="10">
        <tspan>Quelle: Statistisches Amt Basel-Stadt, kantonale Gebäude- und Wohnungsstatistik</tspan>
    </text>
</svg>
